DenisNovikLanding/build/img/svg/AI.svg

<svg width="90" height="89" viewBox="0 0 90 89" fill="none" xmlns="http://www.w3.org/2000/svg">
<path d="M4.20239 3.7832H85.9629V84.7881H4.20239V3.7832Z" fill="url(#paint0_radial_254_448)"/>
<path d="M4.20239 3.78375H85.9629V84.7886H4.20239V3.78375ZM0.486816 88.5724H89.6963V0H0.486816V88.5724ZM58.9178 31.5797C58.9178 31.2705 59.025 31.1249 59.3644 31.1249H65.2057C65.5093 31.1249 65.6522 31.2341 65.6522 31.5797V61.4495C65.6522 61.7587 65.5808 61.9043 65.2057 61.9043H59.4358C59.0607 61.9043 58.9535 61.7224 58.9535 61.4131V31.5797H58.9178ZM58.5069 22.9753C58.5069 20.5559 60.1861 19.1188 62.2939 19.1188C64.5626 19.1188 66.081 20.6651 66.081 22.9753C66.081 25.4675 64.4911 26.8319 62.2225 26.8319C60.0789 26.85 58.5069 25.4857 58.5069 22.9753ZM41.7868 44.0224C40.7508 39.8203 38.2856 30.6702 37.3567 26.2315H37.2853C36.4993 30.652 34.5343 38.1467 32.9802 44.0224H41.7868ZM31.4618 50.1528L28.5322 61.5041C28.4608 61.8133 28.3536 61.8861 27.9785 61.8861H22.5123C22.1372 61.8861 22.0657 61.7769 22.1372 61.3221L32.6944 23.703C32.873 23.0299 32.9981 22.4114 33.0695 20.5559C33.0695 20.2831 33.1767 20.1739 33.3732 20.1739H41.1795C41.4474 20.1739 41.5546 20.2467 41.6261 20.5559L53.4516 61.3949C53.523 61.7042 53.4516 61.8861 53.1479 61.8861H46.9851C46.6814 61.8861 46.5028 61.8133 46.4313 61.5404L43.3767 50.1528H31.4618Z" fill="#FF7F18"/>
<defs>
<radialGradient id="paint0_radial_254_448" cx="0" cy="0" r="1" gradientUnits="userSpaceOnUse" gradientTransform="translate(31.157 21.9605) scale(62.1406 61.2673)">
<stop stop-color="#423325" stop-opacity="0.98"/>
<stop offset="1" stop-color="#1C0A00"/>
</radialGradient>
</defs>
</svg>

<svg width="90" height="89" fill="none" xmlns="http://www.w3.org/2000/svg"><path d="M4.202 3.783h81.76v81.005H4.203V3.783z" fill="url(#paint0_radial_254_448)"/><path d="M4.202 3.784h81.76v81.005H4.203V3.784zM.487 88.572h89.21V0H.486v88.572zm58.43-56.992c0-.31.108-.455.447-.455h5.842c.303 0 .446.11.446.455v29.87c0 .309-.071.454-.446.454h-5.77c-.375 0-.483-.182-.483-.49V31.58h-.035zm-.41-8.605c0-2.42 1.68-3.856 3.787-3.856 2.269 0 3.787 1.546 3.787 3.856 0 2.492-1.59 3.857-3.859 3.857-2.143.018-3.715-1.346-3.715-3.857zm-16.72 21.047c-1.036-4.202-3.501-13.352-4.43-17.79h-.072c-.786 4.42-2.75 11.915-4.305 17.79h8.807zm-10.325 6.13l-2.93 11.352c-.071.31-.178.382-.553.382h-5.467c-.375 0-.446-.11-.375-.564l10.557-37.619c.179-.673.304-1.292.375-3.147 0-.273.108-.382.304-.382h7.806c.268 0 .376.073.447.382l11.826 40.839c.071.31 0 .491-.304.491h-6.163c-.304 0-.482-.073-.554-.346l-3.054-11.387H31.462z" fill="#FF7F18"/><defs><radialGradient id="paint0_radial_254_448" cx="0" cy="0" r="1" gradientUnits="userSpaceOnUse" gradientTransform="matrix(62.1406 0 0 61.2673 31.157 21.96)"><stop stop-color="#423325" stop-opacity=".98"/><stop offset="1" stop-color="#1C0A00"/></radialGradient></defs></svg>
